X: 13
T:Devonshire Hornpipe (#318), The
M:4/4
L:1/8
S:Wilson's Companion to the Ballroom 1816
R:Hornpipe
K:G
d2|g2 fe edcB|cecA GFED|B,DGD cBAG|F2 D2 D2 d2|
g2 fe edcB|cecA GFED|B,DGD EGcA|B2 G2 G2:|
|:d2|dcBc de=fd|egBd c2 z e|ed^cd e^fga|fa^ce d2 z d|
g2 g2 gdBd|g2 g2 gece|gdBG EGcA|B2 G2 G2:||

